; generated by Slic3r 1.2.9 on 2016-02-17 at 08:13:42

; external perimeters extrusion width = 0.40mm
; perimeters extrusion width = 0.48mm
; infill extrusion width = 0.48mm
; solid infill extrusion width = 0.48mm
; top infill extrusion width = 0.48mm

M107
M104 S220 ; set temperature
G28 ; home all axes
G1 Z5 F5000 ; lift nozzle
;move Y axis off bed shutoff switch
M109 S220 ; wait for temperature to be reached
G21 ; set units to millimeters
G90 ; use absolute coordinates
M82 ; use absolute distances for extrusion
G92 E0
G1 E-0.50000 F1800.00000
G92 E0
G1 Z0.350 F7800.000
G1 X84.527 Y71.428 F7800.000
G1 E0.50000 F1800.00000
G1 X85.640 Y70.272 E0.64592 F1080.000
G1 X86.899 Y69.233 E0.79431
G1 X88.301 Y68.320 E0.94649
G1 X89.608 Y67.653 E1.07986
G1 X89.832 Y67.555 E1.10210
G1 X91.238 Y67.035 E1.23843
G1 X91.492 Y66.960 E1.26252
G1 X92.983 Y66.617 E1.40163
G1 X93.274 Y66.572 E1.42841
G1 X94.834 Y66.444 E1.57071
G1 X95.166 Y66.444 E1.60094
G1 X96.464 Y66.551 E1.71933
G1 X97.017 Y66.617 E1.77000 F1080.000
G1 X98.508 Y66.960 E1.90911
G1 X98.762 Y67.035 E1.93320
G1 X100.392 Y67.653 E2.09173
G1 X101.898 Y68.437 E2.24609
G1 X103.101 Y69.233 E2.37729
G1 X104.360 Y70.272 E2.52567
G1 X104.531 Y70.433 E2.54703
G1 X105.473 Y71.428 E2.67163
G1 X105.631 Y71.618 E2.69411
G1 X106.428 Y72.696 E2.81603
G1 X106.572 Y72.920 E2.84021
G1 X107.204 Y74.060 E2.95873
G1 X107.318 Y74.302 E2.98304
G1 X107.784 Y75.484 E3.09860
G1 X107.863 Y75.729 E3.12198
G1 X108.218 Y77.170 E3.25696
G1 X108.402 Y78.599 E3.38800
G1 X108.443 Y80.007 E3.51605
G1 X108.365 Y81.378 E3.64090
G1 X108.189 Y82.710 E3.76310
G1 X107.958 Y83.895 E3.87289
G1 X107.646 Y85.132 E3.98883
G1 X106.697 Y88.278 E4.28766
G1 X106.455 Y89.174 E4.37202
G1 X106.282 Y89.963 E4.44551
G1 X106.174 Y90.705 E4.51367
G1 X106.135 Y91.433 E4.58001
G1 X106.175 Y92.180 E4.64797
G1 X106.293 Y93.053 E4.72808
G1 X106.482 Y94.024 E4.81805
G1 X106.738 Y95.104 E4.91897
G1 X107.711 Y98.850 E5.27092
G1 X108.015 Y100.224 E5.39881
G1 X108.267 Y101.669 E5.53221
G1 X108.459 Y103.132 E5.66642
G1 X108.581 Y104.429 E5.78487
G1 X108.660 Y105.742 E5.90447
G1 X108.698 Y107.047 E6.02316
G1 X108.704 Y108.270 E6.13438
G1 X108.649 Y112.095 E6.48222
G1 X108.575 Y113.053 E6.56960
G1 X108.411 Y114.101 E6.66609
G1 X108.106 Y115.216 E6.77111
G1 X108.007 Y115.489 E6.79754
G1 X107.621 Y116.356 E6.88385
G1 X107.482 Y116.617 E6.91077
G1 X106.960 Y117.449 E7.00008
G1 X106.806 Y117.663 E7.02407
G1 X106.009 Y118.613 E7.13678
G1 X105.223 Y119.387 E7.23708
G1 X104.027 Y120.368 E7.37779
G1 X102.835 Y121.173 E7.50853
G1 X101.675 Y121.828 E7.62968
G1 X100.046 Y122.561 E7.79208
G1 X98.443 Y123.088 E7.94550
G1 X96.971 Y123.404 E8.08242
G1 X96.705 Y123.443 E8.10691
G1 X95.160 Y123.565 E8.24785
G1 X94.840 Y123.565 E8.27687
G1 X93.295 Y123.443 E8.41780
G1 X93.029 Y123.404 E8.44230
G1 X91.336 Y123.027 E8.59999
G1 X89.768 Y122.488 E8.75074
G1 X88.325 Y121.828 E8.89504
G1 X87.014 Y121.080 E9.03232
G1 X85.831 Y120.261 E9.16314
G1 X84.777 Y119.387 E9.28765
G1 X83.847 Y118.456 E9.40730
G1 X83.194 Y117.663 E9.50065
G1 X83.040 Y117.449 E9.52464
G1 X82.518 Y116.617 E9.61395
G1 X82.379 Y116.356 E9.64087
G1 X81.993 Y115.489 E9.72719
G1 X81.894 Y115.216 E9.75362
G1 X81.642 Y114.336 E9.83680
G1 X81.444 Y113.212 E9.94062
G1 X81.351 Y112.097 E10.04233
G1 X81.296 Y108.290 E10.38850
G1 X81.302 Y107.047 E10.50156
G1 X81.340 Y105.742 E10.62026
G1 X81.419 Y104.429 E10.73984
G1 X81.541 Y103.132 E10.85830
G1 X81.733 Y101.669 E10.99251
G1 X81.985 Y100.224 E11.12590
G1 X82.289 Y98.851 E11.25373
G1 X83.262 Y95.104 E11.60575
G1 X83.518 Y94.024 E11.70666
G1 X83.707 Y93.053 E11.79663
G1 X83.825 Y92.180 E11.87675
G1 X83.865 Y91.400 E11.94772
G1 X83.826 Y90.705 E12.01105
G1 X83.718 Y89.963 E12.07921
G1 X83.545 Y89.174 E12.15270
G1 X83.303 Y88.278 E12.23706
G1 X82.354 Y85.132 E12.53589
G1 X82.042 Y83.895 E12.65182
G1 X81.811 Y82.710 E12.76162
G1 X81.635 Y81.378 E12.88381
G1 X81.557 Y80.007 E13.00867
G1 X81.598 Y78.599 E13.13673
G1 X81.782 Y77.170 E13.26775
G1 X81.828 Y76.938 E13.28925
G1 X82.137 Y75.729 E13.40277
G1 X82.216 Y75.484 E13.42615
G1 X82.682 Y74.302 E13.54170
G1 X82.796 Y74.060 E13.56601
G1 X83.428 Y72.920 E13.68453
G1 X83.572 Y72.696 E13.70871
G1 X84.489 Y71.474 E13.84764
G1 X84.994 Y71.844 F7800.000
G1 X86.055 Y70.739 E13.98693 F1080.000
G1 X87.259 Y69.744 E14.12887
G1 X88.431 Y68.968 E14.25677
G1 X89.875 Y68.218 E14.40472
G1 X91.436 Y67.628 E14.55642
G1 X93.101 Y67.231 E14.71207
G1 X93.347 Y67.193 E14.73473
G1 X94.859 Y67.069 E14.87269
G1 X95.141 Y67.069 E14.89826
G1 X96.653 Y67.193 E15.03622 F1080.000
G1 X96.899 Y67.231 E15.05888
G1 X98.564 Y67.628 E15.21453
G1 X99.935 Y68.135 E15.34744
G1 X101.569 Y68.968 E15.51417
G1 X102.741 Y69.744 E15.64207
G1 X103.945 Y70.739 E15.78401
G1 X105.006 Y71.844 E15.92330
G1 X105.140 Y72.004 E15.94233
G1 X105.914 Y73.051 E16.06070
G1 X106.647 Y74.345 E16.19596
G1 X106.744 Y74.550 E16.21653
G1 X107.262 Y75.903 E16.34825
G1 X107.601 Y77.273 E16.47658
G1 X107.778 Y78.637 E16.60170
G1 X107.818 Y79.988 E16.72459
G1 X107.743 Y81.311 E16.84504
G1 X107.574 Y82.601 E16.96342
G1 X107.347 Y83.767 E17.07139
G1 X107.041 Y84.973 E17.18448
G1 X106.096 Y88.107 E17.48219
G1 X105.847 Y89.025 E17.56865
G1 X105.667 Y89.852 E17.64559
G1 X105.551 Y90.643 E17.71833
G1 X105.509 Y91.433 E17.79025
G1 X105.552 Y92.238 E17.86354
G1 X105.676 Y93.154 E17.94765
G1 X105.872 Y94.156 E18.04046
G1 X106.132 Y95.257 E18.14334
G1 X107.104 Y98.997 E18.49467
G1 X107.403 Y100.351 E18.62080
G1 X107.650 Y101.766 E18.75142
G1 X107.838 Y103.196 E18.88249
G1 X107.958 Y104.481 E18.99988
G1 X108.036 Y105.776 E19.11782
G1 X108.073 Y107.058 E19.23444
G1 X108.079 Y108.269 E19.34455
G1 X108.024 Y112.066 E19.68988
G1 X107.953 Y112.990 E19.77412
G1 X107.798 Y113.981 E19.86540
G1 X107.512 Y115.022 E19.96357
G1 X107.427 Y115.254 E19.98594
G1 X107.059 Y116.082 E20.06836
G1 X106.942 Y116.303 E20.09114
G1 X106.311 Y117.281 E20.19698
G1 X105.681 Y118.046 E20.28707
G1 X104.676 Y119.038 E20.41542
G1 X103.663 Y119.860 E20.53411
G1 X102.644 Y120.556 E20.64630
G1 X101.380 Y121.277 E20.77863
G1 X99.832 Y121.974 E20.93298
G1 X98.295 Y122.481 E21.08017
G1 X96.860 Y122.789 E21.21356
G1 X96.635 Y122.822 E21.23429
G1 X95.135 Y122.940 E21.37109
G1 X94.865 Y122.940 E21.39564
G1 X93.365 Y122.822 E21.53243
G1 X93.140 Y122.789 E21.55317
G1 X91.519 Y122.429 E21.70413
G1 X90.011 Y121.912 E21.84906
G1 X88.620 Y121.277 E21.98810
G1 X87.356 Y120.556 E22.12042
G1 X86.217 Y119.769 E22.24633
G1 X85.205 Y118.932 E22.36574
G1 X84.319 Y118.046 E22.47967
G1 X83.689 Y117.281 E22.56975
G1 X83.059 Y116.303 E22.67559
G1 X82.941 Y116.082 E22.69837
G1 X82.573 Y115.254 E22.78080
G1 X82.488 Y115.022 E22.80316
G1 X82.247 Y114.180 E22.88285
G1 X82.063 Y113.124 E22.98034
G1 X81.976 Y112.068 E23.07670
G1 X81.921 Y108.286 E23.42063
G1 X81.927 Y107.058 E23.53229
G1 X81.964 Y105.776 E23.64892
G1 X82.042 Y104.481 E23.76684
G1 X82.162 Y103.196 E23.88424
G1 X82.350 Y101.766 E24.01531
G1 X82.597 Y100.351 E24.14593
G1 X82.896 Y98.998 E24.27200
G1 X83.868 Y95.257 E24.62338
G1 X84.128 Y94.156 E24.72627
G1 X84.324 Y93.154 E24.81908
G1 X84.448 Y92.238 E24.90319
G1 X84.491 Y91.433 E24.97648
G1 X84.449 Y90.643 E25.04840
G1 X84.333 Y89.851 E25.12114
G1 X84.153 Y89.025 E25.19807
G1 X83.904 Y88.107 E25.28454
G1 X82.959 Y84.973 E25.58225
G1 X82.653 Y83.767 E25.69534
G1 X82.426 Y82.601 E25.80331
G1 X82.257 Y81.311 E25.92169
G1 X82.182 Y79.988 E26.04214
G1 X82.222 Y78.637 E26.16503
G1 X82.438 Y77.076 E26.30830
G1 X82.805 Y75.696 E26.43821
G1 X83.256 Y74.550 E26.55019
G1 X83.965 Y73.241 E26.68556
G1 X84.086 Y73.051 E26.70602
G1 X84.956 Y71.890 E26.83794
G1 X85.461 Y72.260 F7800.000
G1 X86.471 Y71.206 E26.97060 F1080.000
G1 X87.618 Y70.256 E27.10610
G1 X88.899 Y69.419 E27.24522
G1 X90.298 Y68.715 E27.38760
G1 X91.810 Y68.169 E27.53374
G1 X93.219 Y67.845 E27.66524
G1 X93.420 Y67.814 E27.68378
G1 X94.885 Y67.694 E27.81739
G1 X95.115 Y67.694 E27.83831
G1 X96.362 Y67.796 E27.95208
G1 X96.781 Y67.845 E27.99044 F1080.000
G1 X98.366 Y68.221 E28.13858
G1 X99.857 Y68.783 E28.28344
G1 X101.101 Y69.419 E28.41046
G1 X102.508 Y70.350 E28.56389
G1 X103.529 Y71.206 E28.68507
G1 X104.539 Y72.260 E28.81773
G1 X105.499 Y73.561 E28.96479
G1 X106.091 Y74.630 E29.07595
G1 X106.607 Y75.907 E29.20114
G1 X106.984 Y77.375 E29.33896
G1 X107.154 Y78.675 E29.45817
G1 X107.194 Y79.848 E29.56491
G1 X107.122 Y81.243 E29.69193
G1 X106.959 Y82.493 E29.80650
G1 X106.735 Y83.638 E29.91264
G1 X106.423 Y84.866 E30.02783
G1 X105.495 Y87.936 E30.31948
G1 X105.240 Y88.878 E30.40817
G1 X105.052 Y89.740 E30.48842
G1 X104.929 Y90.581 E30.56575
G1 X104.883 Y91.432 E30.64325
G1 X104.930 Y92.296 E30.72186
G1 X105.059 Y93.256 E30.80997
G1 X105.261 Y94.288 E30.90562
G1 X105.527 Y95.410 E31.01047
G1 X106.496 Y99.144 E31.36119
G1 X106.791 Y100.479 E31.48555
G1 X107.033 Y101.864 E31.61339
G1 X107.216 Y103.259 E31.74132
G1 X107.335 Y104.533 E31.85766
G1 X107.412 Y105.809 E31.97393
G1 X107.448 Y107.069 E32.08848
G1 X107.454 Y108.267 E32.19748
G1 X107.400 Y112.037 E32.54030
G1 X107.332 Y112.926 E32.62139
G1 X107.184 Y113.861 E32.70748
G1 X106.917 Y114.829 E32.79879
G1 X106.848 Y115.018 E32.81709
G1 X106.401 Y115.989 E32.91424
G1 X105.816 Y116.899 E33.01264
G1 X105.209 Y117.636 E33.09947
G1 X104.269 Y118.563 E33.21948
G1 X103.299 Y119.352 E33.33320
G1 X102.302 Y120.033 E33.44297
G1 X101.085 Y120.726 E33.57034
G1 X99.618 Y121.387 E33.71665
G1 X98.146 Y121.873 E33.85761
G1 X96.565 Y122.200 E34.00440
G1 X95.110 Y122.315 E34.13706
G1 X94.890 Y122.315 E34.15714
G1 X93.435 Y122.200 E34.28979
G1 X91.702 Y121.831 E34.45096
G1 X90.254 Y121.336 E34.59007
G1 X88.915 Y120.726 E34.72385
G1 X87.802 Y120.098 E34.84005
G1 X86.701 Y119.352 E34.96099
G1 X85.731 Y118.563 E35.07472
G1 X84.791 Y117.636 E35.19473
G1 X84.184 Y116.899 E35.28155
G1 X83.599 Y115.989 E35.37995
G1 X83.152 Y115.018 E35.47710
G1 X82.853 Y114.024 E35.57155
G1 X82.682 Y113.036 E35.66272
G1 X82.600 Y112.038 E35.75373
G1 X82.546 Y108.281 E36.09540
G1 X82.552 Y107.069 E36.20567
G1 X82.588 Y105.809 E36.32023
G1 X82.665 Y104.533 E36.43648
G1 X82.784 Y103.259 E36.55283
G1 X82.967 Y101.864 E36.68076
G1 X83.209 Y100.479 E36.80860
G1 X83.504 Y99.144 E36.93291
G1 X84.473 Y95.411 E37.28367
G1 X84.739 Y94.288 E37.38853
G1 X84.941 Y93.256 E37.48418
G1 X85.070 Y92.296 E37.57229
G1 X85.117 Y91.432 E37.65090
G1 X85.071 Y90.581 E37.72840
G1 X84.948 Y89.740 E37.80573
G1 X84.760 Y88.878 E37.88598
G1 X84.505 Y87.936 E37.97467
G1 X83.563 Y84.813 E38.27126
G1 X83.265 Y83.638 E38.38151
G1 X83.041 Y82.493 E38.48764
G1 X82.878 Y81.243 E38.60221
G1 X82.807 Y79.969 E38.71826
G1 X82.846 Y78.675 E38.83599
G1 X83.047 Y77.214 E38.97004
G1 X83.338 Y76.076 E39.07686
G1 X83.830 Y74.798 E39.20141
G1 X84.501 Y73.561 E39.32936
G1 X85.423 Y72.306 E39.47097
G1 X85.928 Y72.675 F7800.000
G1 X86.886 Y71.673 E39.59701 F1080.000
G1 X87.978 Y70.767 E39.72606
G1 X89.090 Y70.030 E39.84736
G1 X90.411 Y69.348 E39.98249
G1 X91.832 Y68.814 E40.12052
G1 X93.337 Y68.459 E40.26115
G1 X94.910 Y68.319 E40.40480
G1 X95.089 Y68.319 E40.42108
G1 X96.663 Y68.459 E40.56472 F1080.000
G1 X98.168 Y68.814 E40.70536
G1 X99.469 Y69.295 E40.83143
G1 X100.910 Y70.030 E40.97851
G1 X102.022 Y70.767 E41.09981
G1 X103.114 Y71.673 E41.22886
G1 X104.157 Y72.777 E41.36698
G1 X104.884 Y73.761 E41.47825
G1 X105.535 Y74.916 E41.59871
G1 X106.061 Y76.250 E41.72915
G1 X106.368 Y77.477 E41.84417
G1 X106.530 Y78.713 E41.95745
G1 X106.569 Y79.950 E42.07002
G1 X106.501 Y81.176 E42.18166
G1 X106.343 Y82.384 E42.29241
G1 X106.123 Y83.509 E42.39672
G1 X105.833 Y84.654 E42.50413
G1 X104.894 Y87.765 E42.79959
G1 X104.633 Y88.729 E42.89044
G1 X104.436 Y89.628 E42.97410
G1 X104.306 Y90.520 E43.05600
G1 X104.258 Y91.432 E43.13907
G1 X104.307 Y92.354 E43.22302
G1 X104.442 Y93.357 E43.31511
G1 X104.650 Y94.421 E43.41361
G1 X104.921 Y95.564 E43.52043
G1 X105.889 Y99.290 E43.87053
G1 X106.180 Y100.607 E43.99312
G1 X106.416 Y101.962 E44.11819
G1 X106.594 Y103.322 E44.24297
G1 X106.713 Y104.585 E44.35826
G1 X106.788 Y105.843 E44.47287
G1 X106.823 Y107.079 E44.58535
G1 X106.829 Y108.266 E44.69323
G1 X106.776 Y112.008 E45.03355
G1 X106.710 Y112.863 E45.11150
G1 X106.571 Y113.741 E45.19239
G1 X106.269 Y114.783 E45.29103
G1 X105.860 Y115.675 E45.38017
G1 X105.321 Y116.517 E45.47114
G1 X104.737 Y117.227 E45.55470
G1 X103.862 Y118.089 E45.66637
G1 X102.935 Y118.844 E45.77512
G1 X101.960 Y119.510 E45.88247
G1 X100.790 Y120.175 E46.00488
G1 X99.403 Y120.800 E46.14315
G1 X97.997 Y121.266 E46.27789
G1 X96.495 Y121.579 E46.41739
G1 X95.086 Y121.690 E46.54590
G1 X93.505 Y121.579 E46.68999
G1 X91.884 Y121.234 E46.84067
G1 X90.497 Y120.760 E46.97397
G1 X89.210 Y120.175 E47.10249
G1 X88.121 Y119.561 E47.21621
G1 X87.065 Y118.844 E47.33225
G1 X86.138 Y118.089 E47.44101
G1 X85.263 Y117.227 E47.55267
G1 X84.679 Y116.517 E47.63623
G1 X84.140 Y115.675 E47.72720
G1 X83.731 Y114.783 E47.81634
G1 X83.458 Y113.868 E47.90323
G1 X83.301 Y112.948 E47.98807
G1 X83.224 Y112.009 E48.07374
G1 X83.171 Y108.277 E48.41316
G1 X83.177 Y107.079 E48.52202
G1 X83.212 Y105.843 E48.63451
G1 X83.287 Y104.585 E48.74911
G1 X83.406 Y103.322 E48.86440
G1 X83.584 Y101.962 E48.98919
G1 X83.820 Y100.607 E49.11426
G1 X84.111 Y99.291 E49.23681
G1 X85.079 Y95.564 E49.58694
G1 X85.350 Y94.421 E49.69376
G1 X85.558 Y93.357 E49.79226
G1 X85.693 Y92.354 E49.88436
G1 X85.742 Y91.432 E49.96830
G1 X85.694 Y90.520 E50.05138
G1 X85.564 Y89.628 E50.13328
G1 X85.367 Y88.729 E50.21694
G1 X85.106 Y87.765 E50.30778
G1 X84.167 Y84.654 E50.60325
G1 X83.877 Y83.509 E50.71066
G1 X83.657 Y82.384 E50.81496
G1 X83.499 Y81.176 E50.92572
G1 X83.431 Y79.950 E51.03735
G1 X83.470 Y78.712 E51.14993
G1 X83.657 Y77.352 E51.27476
G1 X83.939 Y76.250 E51.37822
G1 X84.404 Y75.046 E51.49560
G1 X85.038 Y73.882 E51.61614
G1 X85.890 Y72.721 E51.74703
G1 X86.395 Y73.091 F7800.000
G1 X87.302 Y72.141 E51.86645 F1080.000
G1 X88.338 Y71.278 E51.98905
G1 X89.497 Y70.517 E52.11512
G1 X90.765 Y69.876 E52.24431
G1 X92.127 Y69.378 E52.37621
G1 X93.567 Y69.056 E52.51036
G1 X94.936 Y68.944 E52.63527
G1 X96.260 Y69.042 E52.75602
G1 X96.545 Y69.073 E52.78206 F1080.000
G1 X97.970 Y69.407 E52.91518
G1 X99.322 Y69.913 E53.04638
G1 X100.503 Y70.517 E53.16703
G1 X101.732 Y71.331 E53.30105
G1 X102.698 Y72.141 E53.41570
G1 X103.605 Y73.091 E53.53511
G1 X104.425 Y74.203 E53.66074
G1 X104.978 Y75.201 E53.76452
G1 X105.430 Y76.330 E53.87508
G1 X105.751 Y77.580 E53.99242
G1 X105.906 Y78.750 E54.09979
G1 X105.944 Y79.864 E54.20109
G1 X105.879 Y81.108 E54.31442
G1 X105.728 Y82.275 E54.42137
G1 X105.512 Y83.381 E54.52384
G1 X105.220 Y84.524 E54.63116
G1 X104.293 Y87.594 E54.92276
G1 X104.025 Y88.581 E55.01575
G1 X103.821 Y89.517 E55.10285
G1 X103.684 Y90.458 E55.18930
G1 X103.632 Y91.431 E55.27795
G1 X103.684 Y92.412 E55.36720
G1 X103.825 Y93.459 E55.46330
G1 X104.026 Y94.489 E55.55869
G1 X104.315 Y95.717 E55.67344
G1 X105.281 Y99.437 E56.02291
G1 X105.568 Y100.734 E56.14373
G1 X105.798 Y102.059 E56.26603
G1 X105.973 Y103.386 E56.38767
G1 X106.090 Y104.637 E56.50191
G1 X106.164 Y105.877 E56.61485
G1 X106.199 Y107.090 E56.72526
G1 X106.205 Y108.264 E56.83203
G1 X106.152 Y111.979 E57.16984
G1 X106.088 Y112.799 E57.24464
G1 X105.957 Y113.621 E57.32033
G1 X105.689 Y114.548 E57.40807
G1 X105.320 Y115.360 E57.48919
G1 X104.826 Y116.135 E57.57273
G1 X104.265 Y116.817 E57.65303
G1 X103.455 Y117.615 E57.75635
G1 X102.570 Y118.336 E57.86014
G1 X101.618 Y118.987 E57.96507
G1 X100.494 Y119.624 E58.08252
G1 X99.189 Y120.213 E58.21275
G1 X97.848 Y120.659 E58.34125
G1 X96.425 Y120.958 E58.47346
G1 X95.061 Y121.065 E58.59783
G1 X93.575 Y120.958 E58.73333
G1 X92.067 Y120.636 E58.87353
G1 X90.811 Y120.213 E58.99404
G1 X89.568 Y119.656 E59.11789
G1 X88.440 Y119.023 E59.23552
G1 X87.429 Y118.336 E59.34665
G1 X86.545 Y117.615 E59.45044
G1 X85.791 Y116.877 E59.54633
G1 X85.174 Y116.135 E59.63406
G1 X84.680 Y115.360 E59.71760
G1 X84.311 Y114.548 E59.79872
G1 X84.063 Y113.712 E59.87806
G1 X83.919 Y112.860 E59.95658
G1 X83.848 Y111.980 E60.03689
G1 X83.795 Y108.264 E60.37477
G1 X83.801 Y107.090 E60.48153
G1 X83.836 Y105.876 E60.59195
